X: 094
T: Mrs Hughe's Reel
C: attr. John French (1753-1803)
R: reel
B: "John French Collection", John French ed. p.9 #4
S: http://www.heallan.com/french.asp
Z: 2012 John Chambers <jc:trillian.mit.edu>
M: C
L: 1/8
K: F
c |\
(BA)(GF) CFAc | (B/c/d) TcA BGGc | (BA)(GF) CFAc | BGcA F/F/F F :|
f |\
fc (a/g/f/e/) fcAc | (B/c/d) TcA BGG(g | f)cfa fcAc | BGcA F/F/F Ff |
fc (a/g/f/e/) fcAc | (B/c/d) TcA BGGg | fcaf cfAc | BGcA F/F/F F |]

%%sep 2 1 500
%%sep 1 1 500

